img/package.svg

<svg width="80" height="80" viewBox="0 0 80 80" fill="none" xmlns="http://www.w3.org/2000/svg">
<g clip-path="url(#clip0)">
<path d="M79.9998 13.7194C79.9998 13.7106 79.9987 13.7019 79.9984 13.693C79.9974 13.6581 79.9954 13.6237 79.9913 13.5897C79.9898 13.5772 79.9874 13.5647 79.9855 13.5522C79.9809 13.5208 79.9751 13.4898 79.9679 13.4595C79.9651 13.4475 79.9619 13.4356 79.9587 13.4236C79.9496 13.3906 79.9393 13.3583 79.9274 13.3264C79.9252 13.3203 79.9238 13.314 79.9215 13.3081L76.7426 5.17031C76.4221 4.35031 75.646 3.82031 74.7655 3.82031H68.9774C68.3465 3.82031 67.8351 4.33172 67.8351 4.96265C67.8351 5.59359 68.3465 6.105 68.9774 6.105H74.6549L77.1848 12.5814H53.267L51.7684 6.105H60.6017C61.2326 6.105 61.744 5.59359 61.744 4.96265C61.744 4.33172 61.2326 3.82031 60.6017 3.82031H50.3315H38.8211H14.3869C13.5063 3.82031 12.7304 4.35031 12.4099 5.17062L9.23099 13.3081C9.22864 13.3142 9.22739 13.3205 9.22505 13.3264C9.21317 13.3581 9.20286 13.3905 9.1938 13.4236C9.19052 13.4356 9.18739 13.4475 9.18458 13.4595C9.17739 13.49 9.17161 13.5209 9.16692 13.5522C9.16505 13.5647 9.1627 13.5772 9.16114 13.5897C9.15724 13.6237 9.15505 13.6581 9.15411 13.693C9.15395 13.7017 9.15286 13.7105 9.1527 13.7194C9.1527 13.7208 9.15255 13.7222 9.15255 13.7236V30.5064C9.15255 31.1373 9.66395 31.6487 10.2949 31.6487C10.9258 31.6487 11.4372 31.1373 11.4372 30.5064V14.8661H35.6516V32.2298C35.6516 32.9089 36.0516 33.5276 36.6708 33.8062C36.8975 33.9082 37.1389 33.9581 37.3787 33.9581C37.7937 33.9581 38.2042 33.809 38.5261 33.5237L44.5762 28.1637L50.6264 33.5235C51.1343 33.974 51.8628 34.0848 52.482 33.8062C53.1011 33.5274 53.5011 32.9089 53.5011 32.2298V14.8661H77.7152V66.104C77.7152 66.9236 77.0482 67.5907 76.2285 67.5907H55.2828C55.2828 67.5777 55.2812 67.5647 55.2811 67.5518C55.2798 67.4493 55.2761 67.3469 55.2673 67.2454C57.234 67.7668 59.3354 66.756 60.1235 64.8232C60.5381 63.8064 60.532 62.6893 60.1062 61.6774C60.066 61.5821 60.0218 61.4896 59.9753 61.3985C59.9667 61.3818 59.9584 61.3649 59.9498 61.3483C59.904 61.2615 59.8553 61.1766 59.8039 61.094C59.7939 61.0779 59.7835 61.0622 59.7734 61.0463C59.719 60.9615 59.6626 60.8782 59.6025 60.798C59.6014 60.7965 59.6001 60.795 59.599 60.7936C59.5393 60.7144 59.4762 60.6382 59.411 60.5636C59.3992 60.5501 59.3875 60.5363 59.3754 60.5227C59.3109 60.4508 59.2439 60.3813 59.1745 60.3143C59.1609 60.3011 59.1471 60.2885 59.1334 60.2757C59.0607 60.2074 58.9864 60.141 58.9089 60.0783C58.9062 60.0763 58.9035 60.0743 58.9009 60.0722C58.8246 60.0108 58.7454 59.9527 58.6646 59.8968C58.6501 59.8866 58.6357 59.8763 58.6209 59.8663C58.5401 59.8119 58.4573 59.7605 58.3723 59.7116C58.3653 59.7076 58.3589 59.7029 58.3517 59.6988C58.8345 59.281 59.2156 58.7522 59.4637 58.1438C59.8782 57.1271 59.8721 56.0099 59.4464 54.9979C59.0739 54.1124 58.419 53.4002 57.5803 52.9583C57.4604 52.8952 57.3368 52.8376 57.2098 52.7858L39.4306 45.5363L47.7065 42.9748C49.6754 42.3652 50.7843 40.2652 50.1784 38.2938C49.9523 37.5579 49.504 36.9373 48.925 36.4837C48.0633 35.8085 46.9115 35.5037 45.7694 35.7435C45.7639 35.7448 45.7586 35.7457 45.7531 35.7471C45.6898 35.7613 39.3455 37.1879 32.7194 38.4799C32.4255 38.5373 32.1391 38.5926 31.8567 38.647C31.6308 38.6904 31.408 38.7332 31.1894 38.7748C31.1266 38.7868 31.0636 38.7987 31.0013 38.8106C30.6153 38.8838 30.2414 38.954 29.878 39.0215C29.7317 39.0487 29.5867 39.0756 29.4441 39.1018C21.1227 40.6348 18.785 40.6623 18.1363 40.5745C18.1338 40.5742 18.1316 40.5738 18.1291 40.5734C18.1192 40.572 18.1096 40.5706 18.1005 40.5692C18.0939 40.5681 18.0878 40.567 18.0817 40.566C18.0774 40.5652 18.0727 40.5645 18.0685 40.5638C18.028 40.5565 17.9964 40.5488 17.9721 40.5415L17.7849 40.4652L18.0182 39.8932C18.2475 39.3307 18.2441 38.7126 18.0086 38.1527C17.9497 38.0127 17.878 37.8806 17.7949 37.7574C17.5455 37.3882 17.1928 37.1007 16.771 36.9287L10.6354 34.427C10.073 34.1974 9.45473 34.201 8.89489 34.4365C8.33489 34.672 7.90036 35.1115 7.67099 35.6738L0.168346 54.0743C-0.30509 55.2354 0.25444 56.5651 1.41553 57.0387L7.5513 59.5405C7.83146 59.6547 8.1213 59.7088 8.40677 59.7088C9.30411 59.7088 10.1563 59.1741 10.5155 58.2933L10.5719 58.1551L11.9866 58.7318C11.9874 58.7321 11.9882 58.7326 11.9891 58.7329C13.3422 59.2846 14.5889 60.0718 15.668 61.0486C15.8643 61.2263 16.0549 61.4102 16.2397 61.6C16.4246 61.7899 16.6033 61.9858 16.776 62.1874C16.8622 62.2882 16.9471 62.3905 17.03 62.4941C18.6024 64.4547 20.6636 65.9927 22.9906 66.9416L24.5822 67.5905H12.9241C12.1044 67.5905 11.4374 66.9235 11.4374 66.1038V63.2133C11.4374 62.5824 10.926 62.071 10.295 62.071C9.66411 62.071 9.1527 62.5824 9.1527 63.2133V66.1038C9.1527 68.1833 10.8444 69.8752 12.9241 69.8752H30.1855L44.9012 75.8755C45.4078 76.0821 45.9319 76.18 46.4479 76.1799C48.0697 76.1799 49.61 75.2135 50.2592 73.6214C50.5254 72.9685 50.6109 72.286 50.5392 71.6299C51.3047 71.7397 52.0982 71.6389 52.8176 71.3283C53.5487 71.0125 54.1547 70.5096 54.585 69.875H76.2287C78.3082 69.875 80.0001 68.1833 80.0001 66.1036V13.7237C79.9999 13.7222 79.9998 13.7209 79.9998 13.7194ZM39.7292 6.105H49.4233L50.9218 12.5814H38.2306L39.7292 6.105ZM35.8856 12.5814H11.9677L14.4975 6.105H37.3842L35.8856 12.5814ZM51.2167 30.994H51.2165L45.7225 26.1268C45.3958 25.8375 44.9861 25.6928 44.5765 25.6928C44.1669 25.6928 43.757 25.8375 43.4303 26.1268L37.9364 30.994V14.8661H51.2167V30.994ZM8.40396 57.4208L2.28787 54.9271L9.78255 36.5467L15.8986 39.0406L8.40396 57.4208ZM54.0421 64.3147L52.7311 63.78C52.7304 63.7797 52.7298 63.7796 52.7292 63.7793C52.7287 63.7791 52.7282 63.7788 52.7278 63.7786C52.7276 63.7786 52.7275 63.7785 52.7273 63.7785L39.0733 58.2112C38.4892 57.973 37.8225 58.2533 37.5842 58.8377C37.3459 59.4219 37.6264 60.0886 38.2108 60.3269L51.8651 65.8944C51.9222 65.9177 51.9773 65.9435 52.0306 65.9718C52.0456 65.9797 52.0595 65.9894 52.0742 65.9977C52.1117 66.0189 52.1493 66.0402 52.1848 66.0638C52.2018 66.0752 52.2175 66.0883 52.234 66.1002C52.2654 66.1227 52.2975 66.1449 52.3272 66.1693C52.3451 66.1839 52.3614 66.2004 52.3787 66.2157C52.4053 66.2393 52.4325 66.2621 52.4575 66.2871C52.4748 66.3043 52.4903 66.3232 52.5068 66.341C52.5298 66.3657 52.5534 66.3899 52.575 66.4158C52.5914 66.4357 52.6057 66.4568 52.6214 66.4772C52.6409 66.5028 52.6612 66.528 52.6792 66.5546C52.6943 66.5768 52.7073 66.6002 52.7214 66.6229C52.7376 66.6491 52.7548 66.6749 52.7697 66.7019C52.7831 66.7263 52.7943 66.7518 52.8067 66.7766C52.8198 66.8033 52.834 66.8296 52.8459 66.8569C52.8573 66.8832 52.8665 66.9104 52.8767 66.9371C52.887 66.9641 52.8982 66.9907 52.9073 67.0182C52.9164 67.0458 52.9232 67.0741 52.9309 67.1021C52.9386 67.1297 52.9472 67.1569 52.9536 67.1849C52.96 67.2132 52.964 67.2419 52.9692 67.2704C52.9743 67.2988 52.9803 67.3269 52.984 67.3557C52.9878 67.3844 52.9892 67.4135 52.9915 67.4424C52.9939 67.4714 52.9973 67.5004 52.9982 67.5294C52.9992 67.558 52.9978 67.5869 52.9975 67.6157C52.9972 67.6454 52.9976 67.675 52.9957 67.7049C52.994 67.7332 52.9898 67.7614 52.9867 67.7897C52.9834 67.8202 52.9809 67.8507 52.9759 67.881C52.9714 67.9088 52.9643 67.9364 52.9586 67.9643C52.952 67.995 52.9465 68.0258 52.9382 68.0564C52.9311 68.0835 52.9214 68.1104 52.9128 68.1372C52.9031 68.1679 52.8942 68.1985 52.8828 68.2286C52.8731 68.2494 52.8636 68.2704 52.8547 68.2914C52.8526 68.2963 52.8515 68.3013 52.8497 68.306C52.6712 68.718 52.3418 69.0453 51.9117 69.2311C51.4382 69.4353 50.8962 69.4425 50.4243 69.25L48.0051 68.2636C47.9939 68.2591 47.9825 68.256 47.9712 68.2518C47.9598 68.2466 47.949 68.2407 47.9375 68.236L36.8319 63.7077C36.2473 63.4696 35.5809 63.7499 35.3428 64.3343C35.1045 64.9185 35.385 65.5852 35.9692 65.8235L47.0748 70.3518C47.0867 70.3566 47.0987 70.36 47.1108 70.3644C47.1215 70.3691 47.1315 70.3749 47.1426 70.3793C48.0747 70.7594 48.5239 71.8269 48.1439 72.7589C47.7637 73.6913 46.6967 74.1407 45.7642 73.7602L30.8431 67.6761C30.8425 67.6758 30.8419 67.6755 30.8413 67.6752L23.8538 64.826C22.6238 64.3244 21.4816 63.6283 20.4733 62.7719C19.8683 62.258 19.3116 61.6866 18.8128 61.0647C18.3214 60.4521 17.7824 59.8807 17.2024 59.3555C15.9263 58.2004 14.4521 57.2696 12.8522 56.6171C12.8521 56.6171 12.8519 56.6169 12.8518 56.6169L11.4352 56.0394L14.2566 49.1199L16.9228 42.581L17.1196 42.6612C17.3047 42.7367 17.5688 42.8438 18.2794 42.8707C19.1672 42.9109 20.636 42.8182 23.2672 42.4465C25.057 42.1937 27.2525 41.8281 29.8155 41.3565C29.8786 41.3449 29.9413 41.3334 30.005 41.3217C30.1249 41.2995 30.2459 41.277 30.3675 41.2545C30.462 41.237 30.557 41.2192 30.6528 41.2012C30.7619 41.1807 30.8714 41.1602 30.9817 41.1395C31.0988 41.1174 31.2172 41.0951 31.3363 41.0724C31.4316 41.0543 31.5267 41.0363 31.623 41.0181C31.7681 40.9904 31.9158 40.9621 32.0639 40.9337C32.1402 40.919 32.2156 40.9046 32.2925 40.8899C32.5194 40.8462 32.7492 40.8018 32.9833 40.7563C39.5866 39.472 45.96 38.0424 46.2464 37.9781C46.275 37.9721 46.3036 37.9687 46.3322 37.9645C47.0659 37.8559 47.7848 38.2803 47.9953 38.9649C48.0692 39.2056 48.0778 39.451 48.0312 39.682C47.9289 40.1902 47.5595 40.6288 47.0315 40.7921L35.7062 44.2974C35.2452 44.4402 34.9236 44.857 34.9028 45.3391C34.8819 45.8212 35.1659 46.2645 35.6128 46.4466L56.3478 54.9015C56.7993 55.0855 57.1521 55.4344 57.3412 55.884C57.5303 56.3335 57.5331 56.8297 57.3489 57.2812C57.1646 57.7327 56.8159 58.0855 56.3664 58.2746C56.1417 58.369 55.9053 58.4168 55.6686 58.4182C55.6651 58.4182 55.6617 58.4177 55.6582 58.4177C55.6026 58.4177 55.5471 58.4155 55.4917 58.4104C55.4753 58.4088 55.459 58.4054 55.4426 58.4035C55.4003 58.3983 55.3579 58.3935 55.3159 58.3854C55.2893 58.3802 55.2631 58.3724 55.2367 58.3661C55.2051 58.3587 55.1734 58.3522 55.1422 58.343C55.1098 58.3335 55.0781 58.3208 55.0462 58.3094C55.0209 58.3004 54.9951 58.2929 54.9701 58.2827L41.3145 52.7146C40.7303 52.4763 40.0637 52.7568 39.8255 53.3412C39.5872 53.9254 39.8676 54.5921 40.452 54.8304L57.0075 61.5808C57.1204 61.6268 57.2271 61.6832 57.3267 61.7488C57.6253 61.9457 57.8592 62.2261 58.0009 62.5633C58.1664 62.9566 58.1892 63.3857 58.0689 63.7893C58.0517 63.8469 58.0315 63.9041 58.0085 63.9605C57.9848 64.0188 57.9584 64.0752 57.9295 64.1296C57.8621 64.2561 57.7801 64.3705 57.6885 64.4747C57.6317 64.5394 57.5709 64.5997 57.5062 64.655C57.4959 64.6638 57.4865 64.6738 57.476 64.6822C57.0592 65.0232 56.5018 65.1697 55.9573 65.0597C55.8468 65.0374 55.737 65.0057 55.6289 64.9616L54.0421 64.3147Z" fill="url(#paint0_linear)"/>
</g>
<defs>
<linearGradient id="paint0_linear" x1="1.21181e-07" y1="40.3891" x2="83.1617" y2="39.1543" gradientUnits="userSpaceOnUse">
<stop stop-color="#FCAF45"/>
<stop offset="0.197917" stop-color="#F77737"/>
<stop offset="0.395833" stop-color="#FD1D1D"/>
<stop offset="0.59375" stop-color="#C13584"/>
<stop offset="0.796875" stop-color="#833AB4"/>
<stop offset="1" stop-color="#405DE6"/>
</linearGradient>
<clipPath id="clip0">
<rect width="80" height="80" fill="white"/>
</clipPath>
</defs>
</svg>

<svg width="80" height="80" viewBox="0 0 80 80" fill="none" xmlns="http://www.w3.org/2000/svg"><g clip-path="url(#clip0)"><path d="M80 13.72l-.002-.027a1.134 1.134 0 00-.007-.103l-.005-.038a1.076 1.076 0 00-.018-.092l-.01-.036a1.158 1.158 0 00-.03-.098l-.007-.018-3.178-8.138a2.11 2.11 0 00-1.977-1.35h-5.789a1.142 1.142 0 100 2.285h5.678l2.53 6.476H53.267l-1.499-6.476h8.834a1.142 1.142 0 100-2.285H14.387c-.88 0-1.657.53-1.977 1.35l-3.18 8.139-.006.018a1.117 1.117 0 00-.058.226l-.006.038a1.186 1.186 0 00-.007.103l-.001.026v16.787a1.142 1.142 0 102.284 0v-15.64h24.215V32.23a1.731 1.731 0 001.727 1.728 1.73 1.73 0 001.147-.434l6.05-5.36 6.05 5.36a1.73 1.73 0 001.856.282 1.731 1.731 0 001.02-1.576V14.866h24.213v51.238c0 .82-.667 1.487-1.487 1.487H55.283l-.002-.04a4.162 4.162 0 00-.014-.306 4.116 4.116 0 004.856-2.422 4.083 4.083 0 00-.148-3.424l-.025-.05a4.125 4.125 0 00-.146-.255l-.03-.048a4.148 4.148 0 00-.172-.248c0-.002-.002-.003-.003-.004a4.104 4.104 0 00-.188-.23c-.012-.014-.023-.028-.036-.041a4.033 4.033 0 00-.2-.209l-.042-.038a4.04 4.04 0 00-.468-.38l-.044-.03a4.15 4.15 0 00-.249-.154c-.007-.004-.013-.01-.02-.013a4.093 4.093 0 001.112-1.555 4.084 4.084 0 00-.018-3.146 4.08 4.08 0 00-2.236-2.212l-17.78-7.25 8.276-2.561a3.753 3.753 0 002.472-4.681 3.668 3.668 0 00-1.253-1.81 3.846 3.846 0 00-3.156-.74l-.016.003c-.063.014-6.407 1.44-13.034 2.733a339.343 339.343 0 01-1.53.295l-.188.036a304.036 304.036 0 01-1.557.29c-8.321 1.534-10.659 1.561-11.308 1.474l-.007-.002a2.395 2.395 0 01-.029-.004l-.018-.003-.014-.002a.882.882 0 01-.096-.023l-.187-.076.233-.572a2.26 2.26 0 00-.223-2.136 2.259 2.259 0 00-1.024-.828l-6.136-2.502a2.258 2.258 0 00-1.74.01c-.56.235-.995.675-1.224 1.237l-7.503 18.4a2.277 2.277 0 001.248 2.965L7.55 59.54a2.278 2.278 0 002.964-1.247l.057-.139 1.415.577h.002a12.55 12.55 0 015.041 3.762 14.844 14.844 0 005.96 4.448l1.592.649H12.924c-.82 0-1.487-.667-1.487-1.487v-2.89a1.142 1.142 0 10-2.284 0v2.89a3.776 3.776 0 003.771 3.771h17.262l14.715 6a4.08 4.08 0 001.547.305 4.117 4.117 0 003.811-2.559 4.085 4.085 0 00.28-1.991c.766.11 1.56.009 2.279-.302a4.073 4.073 0 001.767-1.453h21.644A3.776 3.776 0 0080 66.104V13.719zM39.73 6.104h9.693l1.499 6.476H38.23l1.498-6.476zm-3.844 6.476H11.968l2.53-6.476h22.886l-1.498 6.476zm15.33 18.413l-5.494-4.867a1.725 1.725 0 00-2.292 0l-5.494 4.867V14.866h13.28v16.128zM8.405 57.421l-6.116-2.494 7.495-18.38 6.116 2.494-7.495 18.38zm45.638 6.894l-1.31-.535h-.003l-.001-.001-13.655-5.568a1.142 1.142 0 10-.862 2.116l13.654 5.567c.057.024.112.05.166.078l.043.026c.038.02.075.042.11.066.018.011.034.024.05.036.031.023.063.045.093.07.018.014.034.03.052.046.026.023.053.046.079.071.017.017.032.036.049.054.023.025.046.049.068.075l.046.061c.02.026.04.051.058.078.015.022.028.045.042.068.017.026.034.052.049.079.013.024.024.05.037.075.013.026.027.053.039.08.011.026.02.053.03.08.011.027.022.054.031.081.01.028.016.056.024.084l.023.083c.006.028.01.057.015.085.005.029.011.057.015.086.004.028.005.058.008.086l.006.087v.087c0 .03 0 .059-.002.089-.002.028-.006.056-.01.085-.003.03-.005.06-.01.091l-.017.083-.02.092-.026.081-.03.092a.69.69 0 00-.028.062l-.005.015c-.179.412-.508.74-.938.925a1.934 1.934 0 01-1.488.019l-2.419-.986c-.011-.005-.023-.008-.034-.012l-.033-.016-11.106-4.528a1.142 1.142 0 10-.863 2.115l11.106 4.529.036.012.032.015a1.828 1.828 0 011 2.38 1.827 1.827 0 01-2.379 1.001l-14.92-6.084h-.003l-6.987-2.85a12.546 12.546 0 01-5.041-3.761 14.845 14.845 0 00-5.96-4.448h-.001l-1.417-.578 2.822-6.92 2.666-6.538.197.08c.185.076.449.183 1.16.21.887.04 2.356-.053 4.987-.425 1.79-.252 3.986-.618 6.549-1.09l.189-.034.363-.068.285-.053c.109-.02.218-.04.329-.062l.354-.067a323.124 323.124 0 01.728-.138l.228-.044.691-.134a529.242 529.242 0 0013.263-2.778c.029-.006.058-.01.086-.014.734-.108 1.453.316 1.663 1a1.462 1.462 0 01-.964 1.827l-11.325 3.506a1.142 1.142 0 00-.093 2.15L56.348 54.9c.451.184.804.533.993.983.19.45.192.946.008 1.397a1.827 1.827 0 01-1.68 1.137h-.01c-.056 0-.112-.002-.167-.008-.017-.001-.033-.005-.05-.006-.042-.006-.084-.01-.126-.019-.027-.005-.053-.013-.08-.019-.03-.007-.063-.014-.094-.023-.032-.01-.064-.022-.096-.034-.025-.009-.05-.016-.076-.026l-13.655-5.568a1.142 1.142 0 10-.863 2.115l16.556 6.75a1.811 1.811 0 01.993.982 1.811 1.811 0 01-.313 1.913 1.793 1.793 0 01-.182.18l-.03.027a1.83 1.83 0 01-1.847.28l-1.587-.647z" fill="url(#paint0_linear)"/></g><defs><linearGradient id="paint0_linear" x1="0" y1="40.389" x2="83.162" y2="39.154" gradientUnits="userSpaceOnUse"><stop stop-color="#FCAF45"/><stop offset=".198" stop-color="#F77737"/><stop offset=".396" stop-color="#FD1D1D"/><stop offset=".594" stop-color="#C13584"/><stop offset=".797" stop-color="#833AB4"/><stop offset="1" stop-color="#405DE6"/></linearGradient><clipPath id="clip0"><path fill="#fff" d="M0 0h80v80H0z"/></clipPath></defs></svg>
